dist/img/icons/trello/trello-plain.svg

<svg xmlns="http://www.w3.org/2000/svg" viewBox="0 0 128 128"><path fill="#23719F" d="M127 16.142c0-8.363-6.779-15.142-15.142-15.142h-95.716c-8.363 0-15.142 6.779-15.142 15.142v95.715c0 8.364 6.779 15.143 15.142 15.143h95.716c8.363 0 15.142-6.779 15.142-15.143v-95.715zm-69 83.398c0 3.807-3.286 6.46-7.093 6.46h-27.344c-3.807 0-6.563-2.653-6.563-6.46v-76.31c0-3.808 2.756-7.23 6.563-7.23h27.344c3.807 0 7.093 3.422 7.093 7.23v76.31zm55-66.456v31.886000000000003c0 3.807-2.936 7.03-6.744 7.03h-27.33c-3.808 0-6.926-3.224-6.926-7.03v-42.104c0-3.808 3.118-6.866 6.926-6.866h27.33c3.808 0 6.744 3.058 6.744 6.866v10.218z"/></svg>

<svg xmlns="http://www.w3.org/2000/svg" viewBox="0 0 128 128"><path fill="#23719F" d="M127 16.142C127 7.779 120.221 1 111.858 1H16.142C7.779 1 1 7.779 1 16.142v95.715C1 120.221 7.779 127 16.142 127h95.716c8.363 0 15.142-6.779 15.142-15.143V16.142zM58 99.54c0 3.807-3.286 6.46-7.093 6.46H23.563C19.756 106 17 103.347 17 99.54V23.23c0-3.808 2.756-7.23 6.563-7.23h27.344C54.714 16 58 19.422 58 23.23v76.31zm55-66.456V64.97c0 3.807-2.936 7.03-6.744 7.03h-27.33C75.118 72 72 68.776 72 64.97V22.866C72 19.058 75.118 16 78.926 16h27.33c3.808 0 6.744 3.058 6.744 6.866v10.218z"/></svg>
